X:13
T:Doctor Gilbert's
R:reel
Z:Transcribed by Dave Marshall
M:C|
K:Eminor
|: eBBA ~B3^c | dBAc BAGF | EDB,D G2FG | EDB,E D~A,3 |
B,~E3 EDB,E | G2FG EFGA | Bded Bdgb | afdf e2gf :|
|: e~B3 g~B3 | defg afdf | g2bg fgaf | edef e~B3 |
afdf edB^c | dBAd BFAF | EGcA Bdgb | afdf e2gf :|
